assets/Airplane departure/Flat/airplane_departure_flat.svg

<svg width="32" height="32" viewBox="0 0 32 32" fill="none" xmlns="http://www.w3.org/2000/svg">
<path d="M14.313 7.65039L16.973 6.12039C17.433 5.85039 18.033 6.01039 18.303 6.48039C18.573 6.95039 18.413 7.54039 17.943 7.81039L15.283 9.34039L14.313 7.65039ZM18.883 15.6504L21.543 14.1204C22.003 13.8504 22.603 14.0104 22.873 14.4804C23.143 14.9504 22.983 15.5404 22.513 15.8104L19.853 17.3404L18.883 15.6504Z" fill="#9B9B9B"/>
<path d="M4.21289 14.4103L4.69289 15.2503C5.61289 16.8503 7.23289 17.9103 9.06289 18.1303C10.3129 18.2803 11.5729 18.0203 12.6629 17.3903L28.3829 8.32029C29.9529 7.41029 30.4729 5.36029 29.5329 3.73029C28.5929 2.10029 26.5529 1.52029 24.9829 2.43029L17.2718 6.87802L13.3099 7.51987L12.2464 9.7766L9.27127 11.4927L5.47178 11.826L4.21289 14.4103Z" fill="#CDC4D6"/>
<path d="M25.2527 5.36012C25.4527 5.71012 25.9027 5.83012 26.2527 5.63012L29.5427 3.73012V3.72012C29.2827 3.27012 28.9427 2.90012 28.5427 2.62012L25.5227 4.36012C25.1627 4.56012 25.0427 5.01012 25.2527 5.36012Z" fill="#00A6ED"/>
<path d="M17.2981 6.86287L12.2319 9.78501L9.78298 8.6403C8.54298 8.0603 8.47298 6.3303 9.65298 5.6503C10.013 5.4403 10.443 5.3703 10.853 5.4603L17.2981 6.86287ZM9.28297 11.4903L6.34297 9.85035C5.08297 9.16035 3.55297 9.17035 2.30297 9.89035C2.01297 10.0603 1.91297 10.4303 2.08297 10.7203L4.21297 14.4103L9.28297 11.4903ZM21.823 8.74029L17.673 11.1403C17.333 11.3303 17.113 11.6903 17.073 12.0903L16.373 20.0703C16.253 21.4303 17.723 22.3603 18.903 21.6803C19.263 21.4703 19.533 21.1303 19.663 20.7303L23.153 9.81029C23.403 9.01029 22.543 8.32029 21.823 8.74029Z" fill="#0084CE"/>
<path d="M29.0029 24H3.00293C2.45064 24 2.00293 24.4477 2.00293 25V29C2.00293 29.5523 2.45064 30 3.00293 30H29.0029C29.5552 30 30.0029 29.5523 30.0029 29V25C30.0029 24.4477 29.5552 24 29.0029 24Z" fill="#636363"/>
<path d="M4.5 26.5C4.22386 26.5 4 26.7239 4 27C4 27.2761 4.22386 27.5 4.5 27.5H8C8.27614 27.5 8.5 27.2761 8.5 27C8.5 26.7239 8.27614 26.5 8 26.5H4.5Z" fill="#9B9B9B"/>
<path d="M11 26.5C10.7239 26.5 10.5 26.7239 10.5 27C10.5 27.2761 10.7239 27.5 11 27.5H14.5C14.7761 27.5 15 27.2761 15 27C15 26.7239 14.7761 26.5 14.5 26.5H11Z" fill="#9B9B9B"/>
<path d="M17 27C17 26.7239 17.2239 26.5 17.5 26.5H21C21.2761 26.5 21.5 26.7239 21.5 27C21.5 27.2761 21.2761 27.5 21 27.5H17.5C17.2239 27.5 17 27.2761 17 27Z" fill="#9B9B9B"/>
<path d="M24 26.5C23.7239 26.5 23.5 26.7239 23.5 27C23.5 27.2761 23.7239 27.5 24 27.5H27.5C27.7761 27.5 28 27.2761 28 27C28 26.7239 27.7761 26.5 27.5 26.5H24Z" fill="#9B9B9B"/>
</svg>

<svg xmlns="http://www.w3.org/2000/svg" width="32" height="32" fill="none"><path fill="#9B9B9B" d="m14.313 7.65 2.66-1.53a.972.972 0 0 1 1.33.36.97.97 0 0 1-.36 1.33l-2.66 1.53-.97-1.69Zm4.57 8 2.66-1.53a.972.972 0 0 1 1.33.36.97.97 0 0 1-.36 1.33l-2.66 1.53-.97-1.69Z"/><path fill="#CDC4D6" d="m4.213 14.41.48.84a5.833 5.833 0 0 0 7.97 2.14l15.72-9.07c1.57-.91 2.09-2.96 1.15-4.59s-2.98-2.21-4.55-1.3l-7.711 4.448-3.962.642-1.064 2.257-2.975 1.716-3.8.333-1.258 2.584Z"/><path fill="#00A6ED" d="M25.253 5.36c.2.35.65.47 1 .27l3.29-1.9v-.01c-.26-.45-.6-.82-1-1.1l-3.02 1.74c-.36.2-.48.65-.27 1Z"/><path fill="#0084CE" d="m17.298 6.863-5.066 2.922L9.783 8.64c-1.24-.58-1.31-2.31-.13-2.99.36-.21.79-.28 1.2-.19l6.445 1.403ZM9.283 11.49l-2.94-1.64a4.123 4.123 0 0 0-4.04.04c-.29.17-.39.54-.22.83l2.13 3.69 5.07-2.92Zm12.54-2.75-4.15 2.4c-.34.19-.56.55-.6.95l-.7 7.98c-.12 1.36 1.35 2.29 2.53 1.61.36-.21.63-.55.76-.95l3.49-10.92c.25-.8-.61-1.49-1.33-1.07Z"/><path fill="#636363" d="M29.003 24h-26a1 1 0 0 0-1 1v4a1 1 0 0 0 1 1h26a1 1 0 0 0 1-1v-4a1 1 0 0 0-1-1Z"/><path fill="#9B9B9B" d="M4.5 26.5a.5.5 0 0 0 0 1H8a.5.5 0 0 0 0-1H4.5ZM11 26.5a.5.5 0 0 0 0 1h3.5a.5.5 0 0 0 0-1H11ZM17 27a.5.5 0 0 1 .5-.5H21a.5.5 0 0 1 0 1h-3.5a.5.5 0 0 1-.5-.5ZM24 26.5a.5.5 0 0 0 0 1h3.5a.5.5 0 0 0 0-1H24Z"/></svg>
